X:1
T:Rondo Alla Christmas
T:Rondo Alla Christmas
T:James Kwan
C:James Kwan
%%score { ( 1 3 ) | 2 }
L:1/8
M:2/4
K:E
V:1 treble nm="Piano" snm="Pno."
V:3 treble 
V:2 bass 
V:1
!p! (d/c/^B/c/ | .e) z (f/e/d/e/ | .g) z (a/g/^^f/g/ | d'/c'/^b/c'/ d'/c'/b/c'/ | e'2) .c'.e' | %5
{bc'} .d'.[^ac'].[gb].[ac'] |{bc'} .d'.[^ac'].[gb].[ac'] |{bc'} .d'.[^ac'].[gb].[^^fa] | %8
 g2!mf! .[eg].[^f=a] | .[gb].[gb] (c'/b/a/g/ | f2)!p! .[eg].[fa] | .[gb].[gb] (c'/b/a/g/ | %12
 [df]2)!mf! .[ce].[df] | .[eg].[eg] (a/g/f/e/ | d2)!p! .[ce].[df] | .[eg].[eg] (a/g/f/e/ | %16
 [^Bd]2)!p! (d/c/B/c/ | .e) z (f/e/d/e/ | .g) z (a/g/^^f/g/ |!<(! d'/c'/^b/c'/ d'/c'/b/c'/!<)! | %20
!f!!>(! e'2)!>)!!p! .c'.d' | .e'.d'.c'.^b | .c'.g.a.f | e2 (d3/2c/4d/4 | c2)!f! [cc'][dd'] | %25
 [^e^e']2 [cc'][dd'] | [^e^e'][dd'][cc'][^B^b] | [^A^a][^B^b][cc'][dd'] | [^B^b][Gg][cc'][dd'] | %29
 [^e^e']2 [cc'][dd'] | [^e^e'][dd'][cc'][^B^b] | [^A^a][dd'][^B^b][Gg] | [cc']2!p! (^e'/f'/e'/d'/ | %33
 c'/d'/c'/^b/ ^a/c'/b/a/ | ^^g/^a/^b/g/ ^e/^^f/g/e/ | ^a/!<(!^^g/a/^b/ c'/b/c'/d'/!<)! | %36
 ^e'/^^d'/e'/d'/!>(! e'/f'/e'/^d'/!>)! |!p! c'/d'/c'/^b/ ^a/c'/b/a/ | g/^a/^b/g/ ^e/^^f/g/e/ | %39
 ^^f/g/^a/f/ ^^d/^e/f/d/ | ^e2)!f! (g/f/e/d/) | (c/d/^e/f/ g/^a/^b/c'/) | (c'/^b/^a/g/ g/f/^e/d/) | %43
 (c/d/^e/f/ g/^a/^b/c'/ | ^^c'd') (g/f/^e/d/) | (c/d/^e/f/ g/^a/^b/c'/) | (c'/^b/^a/g/ g/f/^e/d/) | %47
 (^e/g/c/e/ d/f/^B/d/ | c2)!p! (^e'/f'/e'/d'/ | c'/d'/c'/^b/ ^a/c'/b/a/ | %50
 ^^g/^a/^b/g/ ^e/^^f/g/e/ | ^a/^^g/a/^b/ c'/b/c'/d'/ | ^e'/!<(!^^d'/e'/d'/ e'/d'/e'/^^c'/ | %53
 f'/^e'/f'/e'/ f'/!<)!e'/f'/e'/ | f'/!>(!^e'/d'/c'/ ^b/c'/d'/!>)!b/ | %55
!p! c'/d'/^e'/^a/ ^^g/a/^b/g/ | ^a2)!f! [cc'][dd'] | [^e^e']2 [cc'][dd'] | %58
 [^e^e'][dd'][cc'][^B^b] | [^A^a][^B^b][cc'][dd'] | [^B^b][Gg][cc'][dd'] | [^e^e']2 [cc'][dd'] | %62
 [^e^e'][dd'][cc'][^B^b] | [^A^a][dd'][^B^b][Gg] | [cc']2!p! (d/c/^B/c/ | .e) z (f/e/d/e/ | %66
 .g) z (a/g/^^f/g/ | d'/c'/^b/c'/ d'/c'/b/c'/ | e'2) .c'.e' |{bc'} .d'.[^ac'].[gb].[ac'] | %70
{bc'} .d'.[^ac'].[gb].[ac'] |{bc'} .d'.[^ac'].[gb].[^^fa] | g2!mf! .[eg].[^f=a] | %73
 .[gb].[gb] (c'/b/a/g/ | f2)!p! .[eg].[fa] | .[gb].[gb] (c'/b/a/g/ | [df]2)!mf! .[ce].[df] | %77
 .[eg].[eg] (a/g/f/e/ | d2)!p! .[ce].[df] | .[eg].[eg] (a/g/f/e/ | [^Bd]2)!p! (d/c/B/c/ | %81
 .e) z (f/e/d/e/ | .g) z (a/g/^^f/g/ | d'/c'/^b/c'/ d'/c'/b/c'/ |!f!!>(! e'2)!>)!!p! .c'.d' | %85
 .e'.d'.c'.^b | .c'.g.a.f | e2 (d3/2c/4d/4 | c2)!f! (c/c'/d/d'/ | ^e/^e'/) z (c/c'/d/d'/ | %90
 ^e/^e'/d/d'/ c/c'/^B/^b/ | ^A/^a/^B/^b/ c/c'/d/d'/ | ^B/^b/G/g/) (c/c'/d/d'/ | %93
 ^e/^e'/) z (c/c'/d/d'/ | ^e/^e'/d/d'/ c/c'/^B/^b/ | ^A/^a/d/d'/ ^B/^b/G/g/ | [cc']2) [cc']2 | %97
 ^e2!f! !arpeggio!^e'2- | e'2 !arpeggio!^e'2- | e'2 (f'/^e'/)d'/e'/ | (f'/^e'/)d'/e'/ [^ac'f']2- | %101
 [ac'f']2{/f'} .[gc'^e']{/f'}.[gc'e'] |{/f'}.[gc'^e']{/f'}.[gc'e'] (d'2- | d'g') !arpeggio!^e'2- | %104
 e'2 !arpeggio!^e'2- | e'2 (f'/^e'/)d'/e'/ | (f'/^e'/)d'/e'/ [^ac'f']2- | %107
 [ac'f']2{/f'} [gc'^e']2- | [gc'e']2{/^e'} .[g^bd']{/e'}.[gbd'] |{/^e'}.[g^bd']{/e'}.[gbd'] c'2 | %110
!p!{/gc'} ^e'>e'{/gc'} e'2- | e'2{/gc'} ^e'2- | e'2 f'/^e'/d'/e'/ | f'/^e'/d'/e'/ f'2- | %114
 f'2{/f'} ^e'{/f'}e' |{/f'}^e'{/f'}e' (d'2- | d'g')!f! !arpeggio!^e'2- | e'2 !arpeggio!^e'2- | %118
 e'2!<(! (f'/^e'/)d'/e'/ | (f'/^e'/)d'/e'/ [^ac'f']2- | [ac'f']2{/f'} [gc'^e']2- | %121
 [gc'e']2{/^e'} .[g^bd']{/e'}.[gbd'] |{/^e'} .[g^bd']{/e'}.[gbd']!<)!!ff! ([c^egc']2- | %123
 [cegc'][^e^e']) ([cc']2- | [cc'][gg']) ([cc']2- | [cc'][^e^e']) .[cc'].[ee'] | %126
.[cc'].[gg'] .[cc']2 | !>![c^egc']2 !>![cegc']2 | z2 z2 |] %129
V:2
 z2 | C[EG][EG][EG] | C[EG][EG][EG] | C[EG] C[EG] | C[EG][EG][EG] | G,[DG][DG][DG] | %6
 G,[DG][DG][DG] | G,[DG] D,D | G,2 z2 | E,E G,G | B,2 z2 | E,E G,G | B,2 z2 | C,C E,E | G,2 z2 | %15
 C,C E,E | G,2 z2 | C[EG][EG][EG] | C[EG][EG][EG] | C[EG] C[EG] | A,[C^^F][CF][CF] | %21
 G,[CG] F,[A,D] | E,[G,C] F,[A,D] | [G,C][G,C][G,^B,][G,B,] | [C,C]2 z2 |{C,^E,G,} CCCC | %26
{C,^E,G,} CCCC |{F,,^A,,C,} F,F,{^^F,,A,,C,} ^^F,F, |{G,,^B,,D,} G,G,G,G, |{C,^E,G,} CCCC | %30
{C,^E,G,} CCCC |{F,,^A,,C,} F,F,{G,,^B,,D,} G,G, | C,2 z2 | ^A,[C^E][CE][CE] | ^B,[D^E][DE][DE] | %35
 ^A,[C^E][CE][CE] | ^^G,[^B,^E][B,E][B,E] | ^A,[C^E][CE][CE] | ^B,[^EG][EG][EG] | %39
 ^B,[^^F^A][FA][FA] | [^EG]2 z2 | C[^EG][EG][EG] | D[FG] ^B,[FG] | C[^EG][EG][EG] | %44
 G,[^B,F][B,F][B,F] | C[^EG][EG][EG] | D[FG] ^B,[FG] | .C.^A,.F,.G, | .C,.C z2 | ^A,[C^E][CE][CE] | %50
 ^B,[D^E][DE][DE] | ^A,[C^E][CE][CE] | ^E,[^B,^E][=B,E][^A,E] | D,[^A,D][A,D][A,D] | %54
 D,[^B,D][B,D][B,D] | ^E,[^A,C] E,[^B,D] | [^A,C]2 z2 |{C,^E,G,} CCCC |{C,^E,G,} CCCC | %59
{F,,^A,,C,} F,F,{^^F,,A,,C,} ^^F,F, |{G,,^B,,D,} G,G,G,G, |{C,^E,G,} CCCC |{C,^E,G,} CCCC | %63
{F,,^A,,C,} F,F,{G,,^B,,D,} G,G, | C,2 z2 | C[EG][EG][EG] | C[EG][EG][EG] | C[EG] C[EG] | %68
 C[EG][EG][EG] | G,[DG][DG][DG] | G,[DG][DG][DG] | G,[DG] D,D | G,2 z2 | E,E G,G | B,2 z2 | %75
 E,E G,G | B,2 z2 | C,C E,E | G,2 z2 | C,C E,E | G,2 z2 | C[EG][EG][EG] | C[EG][EG][EG] | %83
 C[EG] C[EG] | A,[C^^F][CF][CF] | G,[CG] F,[A,D] | E,[G,C] F,[A,D] | [G,C][G,C][G,^B,][G,B,] | %88
 [C,C]2 z2 |{C,^E,G,} CCCC |{C,^E,G,} CCCC |{F,,^A,,C,} F,F,{^^F,,A,,C,} ^^F,F, | %92
{G,,^B,,D,} G,G,G,G, |{C,^E,G,} CCCC |{C,^E,G,} CCCC |{F,,^A,,C,} F,F,{G,,^B,,D,} G,G, | %96
 C,2{C,^E,G,} CC |CC{C,^E,G,} CC |CC{C,^E,G,} CC |CC{C,^E,G,} CC | CC{F,,^A,,C,} F,F, | %101
F,F,{C,^E,G,} CC |CC{G,,^B,,D,} G,G, |G,G,{C,^E,G,} CC |CC{C,^E,G,} CC | CC{C,^E,G,} CC | %106
CC{F,,^A,,C,} F,F, |F,F,{C,^E,G,} CC |CC{G,,^B,,D,} G,G, |G,G, (C/G/^E/G/ | C/G/^E/G/ C/G/E/G/ | %111
 C/G/^E/G/ C/G/E/G/ | C/G/^E/G/) (C/G/E/G/ | C/G/^E/G/ C/^A/F/A/ | C/^A/F/A/ C/G/^E/G/ | %115
 C/G/^E/G/ G,/G/D/G/ | G,/G/D/G/){C,^E,G,} CC | CC{C,^E,G,} CC |CC{C,^E,G,} CC | %119
CC{F,,^A,,C,} F,F, |F,F,{C,^E,G,} CC |CC{G,,^B,,D,} G,G, | G,G,{C,^E,G,} CC |CC{C,^E,G,} CC | %124
CC{C,^E,G,} CC |CC{C,^E,G,} CC |{C,^E,G,} CC .C,2 | !>![C,^E,G,C]2 !>![C,E,G,C]2 | z2 z2 |] %129
V:3
 x2 | x4 | x4 | x4 | x4 | x4 | x4 | x4 | x4 | x4 | dB x2 | x4 | x4 | x4 | ^BG x2 | x4 | x4 | x4 | %18
 x4 | x4 | x4 | x4 | x4 | x2 x/4 x/4 x/4 x/4 x/4 x/4 x/ | x4 | x4 | x4 | x4 | x4 | x4 | x4 | x4 | %32
 x4 | x4 | x4 | x4 | x4 | x4 | x4 | x4 | x4 | x4 | x4 | x4 | x4 | x4 | x4 | x4 | x4 | x4 | x4 | %51
 x4 | x4 | x4 | x4 | x4 | x4 | x4 | x4 | x4 | x4 | x4 | x4 | x4 | x4 | x4 | x4 | x4 | x4 | x4 | %70
 x4 | x4 | x4 | x4 | dB x2 | x4 | x4 | x4 | ^BG x2 | x4 | x4 | x4 | x4 | x4 | x4 | x4 | x4 | %87
 x2 x/4 x/4 x/4 x/4 x/4 x/4 x/ | x4 | x4 | x4 | x4 | x4 | x4 | x4 | x4 | x4 | ^e'>e' [^egc']2 | %98
 z2 [^egc']2 | z2 x2 | x4 | x4 | x2 [g^b]2- | [gb]2 [^egc']2 | z2 [^egc']2 | z2 x2 | x4 | x4 | x4 | %109
 x4 | x4 | x4 | x4 | x4 | x4 | x2 [g^b]2- | [gb]2 [^egc']2 | z2 [^egc']2 | z2 x2 | x4 | x4 | x4 | %122
 x4 | x4 | x4 | x4 | x4 | x4 | x4 |] %129

